app/dist/common/images/m-tron-industries.svg

<svg height="18" viewBox="0 0 18 18" width="18" xmlns="http://www.w3.org/2000/svg"><path d="m0 0h18v18h-18z" fill="#f0f3fa"/><path d="m14.63 11h.37c-.28.87-1.47 3-3.4 3-1.92 0-3.08-1.8-3.6-3h.37a3.05 3.05 0 0 0 2.98 1.71c1.22 0 1.94-1.24 2.18-1.71h.36c-.46 1.01-1.4 2.14-2.54 2.14-1.64 0-2.05-.72-2.24-.85a3.16 3.16 0 0 0 2.5 1.28c1.58 0 2.7-1.8 3.02-2.57zm-11.26-4h-.37c.28-.87 1.47-3 3.4-3 1.92 0 3.08 1.8 3.6 3h-.37a3.05 3.05 0 0 0 -2.98-1.71c-1.22 0-1.94 1.24-2.18 1.71h-.36c.46-1.01 1.4-2.14 2.54-2.14 1.64 0 2.05.72 2.24.85a3.16 3.16 0 0 0 -2.5-1.28c-1.58 0-2.7 1.8-3.02 2.57z" fill="#d0043c"/><path d="m7 7h-1.25l-.87 2.43-.05-2.43h-1.34l-.49 4h.73l.49-2.91.08 2.91h.77l.92-2.91-.37 2.91h.9zm1.89 0h-1.26l-.63 4h.96l.26-1.5h.49c.46 0 1.12-.14 1.29-1.27 0-.85-.25-1.23-1.11-1.23zm-.35 1.74h-.24l.17-.86h.23c.18 0 .38-.05.38.35 0 .35-.22.51-.55.51zm4.46-1.74h-2.86l-.14 1h.96l-.51 3h.9l.5-3h1zm0 4h1.29l.71-4h-1.29z"/></svg>

<!-- by TradingView --><svg width="18" height="18" viewBox="0 0 18 18" xmlns="http://www.w3.org/2000/svg"><path fill="#F0F3FA" d="M0 0h18v18H0z"/><path d="M14.63 11H15c-.28.87-1.47 3-3.4 3-1.92 0-3.08-1.8-3.6-3h.37a3.05 3.05 0 0 0 2.98 1.71c1.22 0 1.94-1.24 2.18-1.71h.36c-.46 1.01-1.4 2.14-2.54 2.14-1.64 0-2.05-.72-2.24-.85a3.16 3.16 0 0 0 2.5 1.28c1.58 0 2.7-1.8 3.02-2.57ZM3.37 7H3c.28-.87 1.47-3 3.4-3C8.32 4 9.48 5.8 10 7h-.37a3.05 3.05 0 0 0-2.98-1.71C5.43 5.29 4.71 6.53 4.47 7h-.36c.46-1.01 1.4-2.14 2.54-2.14 1.64 0 2.05.72 2.24.85a3.16 3.16 0 0 0-2.5-1.28c-1.58 0-2.7 1.8-3.02 2.57Z" fill="#D0043C"/><path d="M7 7H5.75l-.87 2.43L4.83 7H3.49L3 11h.73l.49-2.91L4.3 11h.77l.92-2.91L5.62 11h.9L7 7ZM8.89 7H7.63L7 11h.96l.26-1.5h.49c.46 0 1.12-.14 1.29-1.27C10 7.38 9.75 7 8.89 7Zm-.35 1.74H8.3l.17-.86h.23c.18 0 .38-.05.38.35 0 .35-.22.51-.55.51ZM13 7h-2.86L10 8h.96l-.51 3h.9l.5-3h1L13 7ZM13 11h1.29L15 7h-1.29L13 11Z"/></svg>
